app/style/icons/ticket-voted.svg

<svg viewBox="0 0 40 40" xmlns="http://www.w3.org/2000/svg"><path d="m35 37h-35l5-7.52h35z" fill="#2ed8a3"/><path d="m26.66 2.08a6.66 6.66 0 1 1 -13.32 0v-.08h-5.84v35h5.84a6.66 6.66 0 0 1 13.32 0h5.84v-35h-5.84z" fill="#96ebd1"/><circle cx="20" cy="19.54" fill="#2ed8a3" r="7.48"/><path d="m2.85 33.26h31.3v3.77h-31.3z" fill="#2ed8a3"/><path d="m0 0h40v40h-40z" fill="none"/></svg>

<svg xmlns="http://www.w3.org/2000/svg" viewBox="0 0 40 40"><defs><style>.cls-1{fill:#2ed8a3;}.cls-2{fill:#96ebd1;}.cls-3{fill:none;}</style></defs><title>ticket-voted</title><g id="Layer_2" data-name="Layer 2"><g id="Layer_1-2" data-name="Layer 1"><g id="Symbol_8_1" data-name="Symbol 8 1"><path id="_Path_" data-name="&lt;Path&gt;" class="cls-1" d="M35,37,0,37l5-7.52H40Z"/><g id="_Group_" data-name="&lt;Group&gt;"><path id="_Path_2" data-name="&lt;Path&gt;" class="cls-2" d="M26.66,2.08a6.66,6.66,0,1,1-13.32,0V2H7.5V37h5.84a6.66,6.66,0,0,1,13.32,0H32.5V2H26.66Z"/><circle id="_Path_3" data-name="&lt;Path&gt;" class="cls-1" cx="20" cy="19.54" r="7.48"/></g><rect id="_Path_4" data-name="&lt;Path&gt;" class="cls-1" x="2.85" y="33.26" width="31.3" height="3.77"/></g><g id="_Group_2" data-name="&lt;Group&gt;"><rect id="_Path_5" data-name="&lt;Path&gt;" class="cls-3" width="40" height="40"/></g></g></g></svg>
